icons/town-hall-15.svg

<?xml version="1.0" encoding="utf-8"?>
<!-- Generator: Adobe Illustrator 19.2.1, SVG Export Plug-In . SVG Version: 6.00 Build 0)  -->
<!DOCTYPE svg PUBLIC "-//W3C//DTD SVG 1.1//EN" "http://www.w3.org/Graphics/SVG/1.1/DTD/svg11.dtd">
<svg version="1.1"
	 id="svg4619" inkscape:version="0.91+devel+osxmenu r12911" sodipodi:docname="town-hall-15.svg" xmlns:cc="http://creativecommons.org/ns#" xmlns:dc="http://purl.org/dc/elements/1.1/" xmlns:inkscape="http://www.inkscape.org/namespaces/inkscape" xmlns:rdf="http://www.w3.org/1999/02/22-rdf-syntax-ns#" xmlns:sodipodi="http://sodipodi.sourceforge.net/DTD/sodipodi-0.dtd" xmlns:svg="http://www.w3.org/2000/svg"
	 xmlns="http://www.w3.org/2000/svg" xmlns:xlink="http://www.w3.org/1999/xlink" x="0px" y="0px" width="15px" height="15px"
	 viewBox="0 0 15 15" style="enable-background:new 0 0 15 15;" xml:space="preserve">
<path id="path7509" d="M7.5,0L1,3.4453V4h13V3.4453L7.5,0z M2,5v5l-1,1.5547V13h13v-1.4453L13,10V5H2z M4,6h1v5.5H4V6z M7,6h1v5.5H7
	V6z M10,6h1v5.5h-1V6z"/>
</svg>

<?xml version="1.0" encoding="UTF-8" standalone="no"?>
<!-- Generator: Adobe Illustrator 17.1.0, SVG Export Plug-In . SVG Version: 6.00 Build 0)  -->

<svg
   xmlns:dc="http://purl.org/dc/elements/1.1/"
   xmlns:cc="http://creativecommons.org/ns#"
   xmlns:rdf="http://www.w3.org/1999/02/22-rdf-syntax-ns#"
   xmlns:svg="http://www.w3.org/2000/svg"
   xmlns="http://www.w3.org/2000/svg"
   xmlns:sodipodi="http://sodipodi.sourceforge.net/DTD/sodipodi-0.dtd"
   xmlns:inkscape="http://www.inkscape.org/namespaces/inkscape"
   version="1.1"
   id="svg4619"
   x="0px"
   y="0px"
   height='15'
   width='15'
   viewBox="0 0 15 15"
   enable-background="new 0 0 15 15"
   xml:space="preserve"
   inkscape:version="0.91+devel+osxmenu r12911"
   sodipodi:docname="town-hall-15.svg"><metadata
     id="metadata8"><rdf:RDF><cc:Work
         rdf:about=""><dc:format>image/svg+xml</dc:format><dc:type
           rdf:resource="http://purl.org/dc/dcmitype/StillImage" /><dc:title /></cc:Work></rdf:RDF></metadata><defs
     id="defs6" /><sodipodi:namedview
     pagecolor="#ffffff"
     bordercolor="#666666"
     borderopacity="1"
     objecttolerance="10"
     gridtolerance="10"
     guidetolerance="10"
     inkscape:pageopacity="0"
     inkscape:pageshadow="2"
     inkscape:window-width="902"
     inkscape:window-height="679"
     id="namedview4"
     showgrid="false"
     inkscape:snap-bbox="true"
     inkscape:bbox-paths="true"
     inkscape:bbox-nodes="true"
     inkscape:snap-bbox-edge-midpoints="true"
     inkscape:snap-bbox-midpoints="true"
     inkscape:object-paths="true"
     inkscape:snap-intersection-paths="true"
     inkscape:object-nodes="true"
     inkscape:snap-smooth-nodes="true"
     inkscape:zoom="22.627417"
     inkscape:cx="7.1168292"
     inkscape:cy="5.3411276"
     inkscape:window-x="19"
     inkscape:window-y="0"
     inkscape:window-maximized="0"
     inkscape:current-layer="svg4619"><inkscape:grid
       type="xygrid"
       id="grid3336"
       spacingx="0.5"
       spacingy="0.5"
       empspacing="2"
       color="#ff0000"
       opacity="0.1254902" /></sodipodi:namedview><path
     style="fill:#000000;fill-opacity:1;stroke-width:1"
     d="M 7.5 0 L 1 3.4453125 L 1 4 L 14 4 L 14 3.4453125 L 7.5 0 z M 2 5 L 2 10 L 1 11.554688 L 1 13 L 14 13 L 14 11.554688 L 13 10 L 13 5 L 2 5 z M 4 6 L 5 6 L 5 11.5 L 4 11.5 L 4 6 z M 7 6 L 8 6 L 8 11.5 L 7 11.5 L 7 6 z M 10 6 L 11 6 L 11 11.5 L 10 11.5 L 10 6 z "
     id="path7509" /></svg>
